assets/icons/traton/mileage.svg

<svg xmlns="http://www.w3.org/2000/svg" width="32" height="32" viewBox="0 0 32 32" fill="none">
<path fill-rule="evenodd" clip-rule="evenodd" d="M23 23H9V17H23V23ZM11 21H21V19H11V21Z" fill="#001D21" />
<path fill-rule="evenodd" clip-rule="evenodd" d="M16 4C23.732 4 30 10.268 30 18C30 21.9179 28.3896 25.4589 25.7959 28H6.2041C3.61038 25.4589 2 21.9179 2 18C2 10.268 8.26801 4 16 4ZM17 9H15V6.04102C12.4376 6.25241 10.1052 7.27089 8.25293 8.83887L10.207 10.793L8.79297 12.207L6.83887 10.2529C5.27091 12.1052 4.2534 14.4377 4.04199 17H7V19H4.04395C4.26544 21.6803 5.36621 24.1098 7.05957 26H24.9404C26.6338 24.1098 27.7346 21.6803 27.9561 19H25V17H27.958C27.7466 14.4374 26.7283 12.1053 25.1602 10.2529L23.207 12.207L21.793 10.793L23.7461 8.83887C21.8939 7.27117 19.5621 6.25238 17 6.04102V9Z" fill="#001D21" />
</svg>

<svg xmlns="http://www.w3.org/2000/svg" fill="none" viewBox="0 0 32 32"><path fill="#001d21" fill-rule="evenodd" d="M23 23H9v-6h14zm-12-2h10v-2H11z" clip-rule="evenodd"/><path fill="#001d21" fill-rule="evenodd" d="M16 4a14 14 0 0 1 9.8 24H6.2A14 14 0 0 1 16 4m1 5h-2V6a12 12 0 0 0-6.7 2.8l2 2-1.5 1.4-2-2A12 12 0 0 0 4 17h3v2H4a12 12 0 0 0 3 7h18a12 12 0 0 0 3-7h-3v-2h3a12 12 0 0 0-2.8-6.7l-2 2-1.4-1.5 2-2A12 12 0 0 0 17 6z" clip-rule="evenodd"/></svg>
